src/lib/packages/icons/src/assets/line/filter-plus.svg

<svg width="24" height="24" viewBox="0 0 24 24" fill="none" xmlns="http://www.w3.org/2000/svg">
<path d="M19 13C19 13.414 18.664 13.75 18.25 13.75H17.75V14.25C17.75 14.664 17.414 15 17 15C16.586 15 16.25 14.664 16.25 14.25V13.75H15.75C15.336 13.75 15 13.414 15 13C15 12.586 15.336 12.25 15.75 12.25H16.25V11.75C16.25 11.336 16.586 11 17 11C17.414 11 17.75 11.336 17.75 11.75V12.25H18.25C18.664 12.25 19 12.586 19 13ZM21.75 13C21.75 15.619 19.619 17.75 17 17.75C16.182 17.75 15.423 17.523 14.75 17.157V21C14.75 21.284 14.59 21.544 14.335 21.671C14.23 21.724 14.114 21.75 14 21.75C13.841 21.75 13.683 21.699 13.55 21.6L9.55005 18.6C9.36205 18.458 9.25 18.236 9.25 18V14C9.25 13.801 9.17205 13.613 9.02905 13.47L3.91003 8.35001C3.48403 7.92501 3.25 7.36001 3.25 6.76001V4.5C3.25 3.259 4.26 2.25 5.5 2.25H18.5C19.74 2.25 20.75 3.259 20.75 4.5V6.76001C20.75 7.36001 20.516 7.92501 20.09 8.35101L19.475 8.966C20.834 9.802 21.75 11.291 21.75 13ZM13.25 19.5V15.881C12.632 15.079 12.25 14.088 12.25 13C12.25 10.381 14.381 8.25 17 8.25C17.332 8.25 17.656 8.28501 17.969 8.35101L19.03 7.29001C19.173 7.14801 19.251 6.96001 19.251 6.76001V4.5C19.251 4.086 18.914 3.75 18.501 3.75H5.50098C5.08798 3.75 4.75098 4.086 4.75098 4.5V6.76001C4.75098 6.95901 4.82905 7.14701 4.97205 7.29001L10.0909 12.41C10.5169 12.835 10.751 13.4 10.751 14V17.625L13.25 19.5ZM20.25 13C20.25 11.208 18.792 9.75 17 9.75C15.208 9.75 13.75 11.208 13.75 13C13.75 14.792 15.208 16.25 17 16.25C18.792 16.25 20.25 14.792 20.25 13Z" fill="currentColor"/>
</svg>

<svg xmlns="http://www.w3.org/2000/svg" width="24" height="24" fill="none"><path fill="currentColor" d="M19 13a.75.75 0 0 1-.75.75h-.5v.5a.75.75 0 0 1-1.5 0v-.5h-.5a.75.75 0 0 1 0-1.5h.5v-.5a.75.75 0 0 1 1.5 0v.5h.5A.75.75 0 0 1 19 13Zm2.75 0A4.756 4.756 0 0 1 17 17.75a4.69 4.69 0 0 1-2.25-.593V21a.749.749 0 0 1-1.2.6l-4-3a.753.753 0 0 1-.3-.6v-4a.745.745 0 0 0-.221-.53L3.91 8.35a2.231 2.231 0 0 1-.66-1.59V4.5c0-1.241 1.01-2.25 2.25-2.25h13c1.24 0 2.25 1.009 2.25 2.25v2.26c0 .6-.234 1.165-.66 1.591l-.615.615c1.359.836 2.275 2.325 2.275 4.034Zm-8.5 6.5v-3.619a4.7 4.7 0 0 1-1-2.881 4.756 4.756 0 0 1 5.719-4.649L19.03 7.29a.741.741 0 0 0 .221-.53V4.5a.75.75 0 0 0-.75-.75h-13a.75.75 0 0 0-.75.75v2.26c0 .199.078.387.221.53l5.119 5.12c.426.425.66.99.66 1.59v3.625L13.25 19.5Zm7-6.5A3.254 3.254 0 0 0 17 9.75 3.254 3.254 0 0 0 13.75 13 3.254 3.254 0 0 0 17 16.25 3.254 3.254 0 0 0 20.25 13Z"/></svg>
